Numix-GalliumOS/16/status/dropboxstatus-x.svg

<?xml version="1.0" encoding="UTF-8" standalone="no"?>
<svg
   xmlns:dc="http://purl.org/dc/elements/1.1/"
   xmlns:cc="http://creativecommons.org/ns#"
   xmlns:rdf="http://www.w3.org/1999/02/22-rdf-syntax-ns#"
   xmlns:svg="http://www.w3.org/2000/svg"
   xmlns="http://www.w3.org/2000/svg"
   xmlns:sodipodi="http://sodipodi.sourceforge.net/DTD/sodipodi-0.dtd"
   xmlns:inkscape="http://www.inkscape.org/namespaces/inkscape"
   width="16"
   height="16"
   viewBox="0 0 16 16"
   id="svg2991"
   version="1.1"
   inkscape:version="0.91 r"
   sodipodi:docname="dropboxstatus-x.svg">
  <metadata
     id="metadata3003">
    <rdf:RDF>
      <cc:Work
         rdf:about="">
        <dc:format>image/svg+xml</dc:format>
        <dc:type
           rdf:resource="http://purl.org/dc/dcmitype/StillImage" />
      </cc:Work>
    </rdf:RDF>
  </metadata>
  <defs
     id="defs3001" />
  <sodipodi:namedview
     pagecolor="#ffffff"
     bordercolor="#666666"
     borderopacity="1"
     objecttolerance="10"
     gridtolerance="10"
     guidetolerance="10"
     inkscape:pageopacity="0"
     inkscape:pageshadow="2"
     inkscape:window-width="688"
     inkscape:window-height="480"
     id="namedview2999"
     showgrid="false"
     inkscape:zoom="14.75"
     inkscape:cx="8"
     inkscape:cy="8"
     inkscape:window-x="494"
     inkscape:window-y="183"
     inkscape:window-maximized="0"
     inkscape:current-layer="svg2991" />
  <path
     style="fill:#ef555c;fill-opacity:1"
     inkscape:connector-curvature="0"
     id="path2997"
     d="M 4.726562,2.546875 1.453125,5.089844 4.726562,7.273438 1.453125,10.183594 8,14.546875 14.546875,10.183594 11.273438,7.273438 14.546875,5.089844 11.273438,2.546875 8,5.089844 z M 8,5.816406 c 0.402344,0 0.726562,0.324219 0.726562,0.730469 l 0,3.636719 c 0,0.402344 -0.324218,0.726562 -0.726562,0.726562 -0.402344,0 -0.726562,-0.324218 -0.726562,-0.726562 l 0,-3.636719 C 7.273438,6.140625 7.597656,5.816406 8,5.816406 z m -0.183594,5.820313 0.367188,0 c 0.300781,0 0.542968,0.242187 0.542968,0.546875 l 0,0.363281 c 0,0.300781 -0.242187,0.542969 -0.542968,0.542969 l -0.367188,0 c -0.300781,0 -0.542968,-0.242188 -0.542968,-0.542969 l 0,-0.363281 c 0,-0.304688 0.242187,-0.546875 0.542968,-0.546875 z" />
</svg>

<svg xmlns="http://www.w3.org/2000/svg" viewBox="0 0 16 16">
 <path d="m 4.727 2.547 -3.273 2.543 3.273 2.184 -3.273 2.91 6.547 4.363 6.547 -4.363 -3.273 -2.91 3.273 -2.184 -3.273 -2.543 -3.273 2.543 z m 3.273 3.27 c 0.402 0 0.727 0.324 0.727 0.73 l 0 3.637 c 0 0.402 -0.324 0.727 -0.727 0.727 -0.402 0 -0.727 -0.324 -0.727 -0.727 l 0 -3.637 c 0 -0.406 0.324 -0.73 0.727 -0.73 z m -0.184 5.82 0.367 0 c 0.301 0 0.543 0.242 0.543 0.547 l 0 0.363 c 0 0.301 -0.242 0.543 -0.543 0.543 l -0.367 0 c -0.301 0 -0.543 -0.242 -0.543 -0.543 l 0 -0.363 c 0 -0.305 0.242 -0.547 0.543 -0.547 z" style="fill:#ef555c;fill-opacity:1"/>
</svg>
